X:1
T:Brightness, CMD
T:Brightness, CMD
T:Frederick Arthur Gore-Ouseley, 1889
T:Public Domain Courtesy of the Cyber Hymnal™
C:Frederick Arthur Gore-Ouseley, 1889
Z:Public Domain
Z:Courtesy of the Cyber Hymnal™
%%score ( 1 2 ) ( 3 4 )
L:1/8
Q:1/4=110
M:4/4
K:Eb
V:1 treble 
V:2 treble 
V:3 bass 
V:4 bass 
V:1
 E2 | [EG]3 [EA] [DB]2 [DB]2 | [Ee]2 [Ec]2 [DB]2 [FA]2 | (GA) [EB]2 [Ec]2 [EA]2 | %4
 [EG]4 [DF]2 [DF]2 | [EG]2 [FB]2 [Ee]2 [Fd]2 | [Gc]2 (dB) [F=A]2 [Fc]2 | [Fd]2 [FB]2 [FG]2 [E=A]2 | %8
 B6 [_DF]2 | [CF]2 [=EG]2 [FA]2 [F_d]2 | [EB]2 (AB) [Ec]2 [EB]2 | [Ec]2 [Ee]2 A2 [EG]2 | %12
 [DF]6 [FB]2 | [EB]2 [EG]2 [EA]2 [EB]2 | [Ec]2 [Fd]2 [Ee]2 [EG]2 | [EB]2 [EA]2 [EF]2 [DG]2 | E6 |] %17
V:2
 E2 | x8 | x8 | E2 x6 | x8 | x8 | x2 G2 x4 | x8 | (E2 _DC) D2 x2 | x8 | x2 E2 x4 | x4 (ED) x2 | %12
 x8 | x8 | x8 | x8 | E6 |] %17
V:3
 [E,G,]2 | [C,G,]3 [C,G,] [G,,G,]2 [G,B,]2 | [C,B,]2 [F,=A,]2 [B,,B,]2 [D,B,]2 | %3
 [E,B,]2 [G,_D]2 [A,C]2 [A,,C]2 | [B,,B,]6 [B,,B,]2 | [E,B,]2 [D,B,]2 [C,G,]2 [D,=B,]2 | %6
 [E,C]2 [=E,G,]2 [F,C]2 [F,=A,]2 | [B,,B,]2 [D,B,]2 [E,B,]2 [C,C]2 | [B,,F,]6 [B,,F,]2 | %9
 [A,,F,]2 [C,C]2 [F,C]2 (B,A,) | [E,G,]2 (F,G,) [A,,A,]2 [E,G,]2 | A,2 [G,B,]2 (CA,) [E,B,]2 | %12
 [B,,B,]6 D2 | [G,E]2 [E,E]2 [F,D]2 [G,_D]2 | [A,C]2 [G,=B,]2 [C,C]2 [C,C]2 | %15
 [G,,_D]2 [A,,C]2 [B,,A,]2 [B,,A,]2 | [E,G,]6 |] %17
V:4
 x2 | x8 | x8 | x8 | x8 | x8 | x8 | x8 | x8 | x6 _D,2 | x2 E,2 x4 | A,2 F,2 x4 | x6 (B,A,) | x8 | %14
 x8 | x8 | x6 |] %17

